icons/shield_ro_trunk_2.svg

<svg width="20.99" height="20.002" xmlns="http://www.w3.org/2000/svg">
 <path d="m 20.192949,3.6649367 -0.135189,0.1898728 -0.123865,0.1956728 -0.121159,0.2014727 -0.112641,0.2013711 -0.104223,0.2072727 -0.09571,0.2128692 -0.0902,0.2158201 -0.08167,0.2187709 -0.07326,0.2215183 -0.06473,0.22162 -0.05632,0.2273183 -0.05071,0.2301673 -0.03939,0.2302691 -0.03387,0.2301674 -0.02244,0.2331182 -0.01694,0.2359673 -0.0056,0.2331183 v 0.2335252 l 0.01123,0.2330166 0.02004,0.2331182 0.02535,0.2331183 0.03377,0.2301674 0.0451,0.2302691 0.0478,0.2301673 0.06484,0.2244692 0.06754,0.2244691 0.07606,0.2186692 0.08167,0.2186692 0.0902,0.21297 0.101417,0.210122 0.106929,0.207171 0.112741,0.201371 a 4.5736809,4.6439472 0 0 1 0.06193,4.638859 4.5081407,4.5774001 0 0 1 -3.942631,2.342375 l -0.306956,0.0028 -0.290621,0.01445 -0.292827,0.023 -0.290621,0.03164 -0.287215,0.04314 -0.287214,0.05179 -0.284409,0.06044 -0.281701,0.06909 -0.281603,0.07764 -0.281602,0.08924 -0.273183,0.09209 -0.275991,0.106537 -0.267472,0.115083 -0.264767,0.123733 -0.26186,0.129431 -0.256247,0.138182 -0.256348,0.146729 -0.24773,0.158329 -0.245024,0.164027 L 10.496213,19.501 10.259707,19.331274 10.014683,19.167247 9.767555,19.009427 9.514113,18.862698 9.2549588,18.724516 8.9959048,18.595085 8.7284328,18.471352 8.4578543,18.356268 8.18467,18.249732 7.9114858,18.157645 7.6326895,18.068407 7.3510873,17.990768 7.0666791,17.921677 6.7822709,17.861236 6.4949565,17.808731 6.2049363,17.765587 5.9176218,17.733941 5.6331134,17.711149 5.3180397,17.696801 H 5.0251133 A 4.5346974,4.6043649 0 0 1 1.1501266,10.712718 l 0.1126409,-0.201371 0.1126408,-0.207171 0.067545,-0.210122 0.112741,-0.2129703 0.090193,-0.2186692 0.067545,-0.2186691 0.067644,-0.2244692 0.067545,-0.2244691 0.045096,-0.2301674 0.044996,-0.2302691 0.045096,-0.2301673 0.022448,-0.2333219 0.022548,-0.2331182 V 7.138612 L 2.0062574,6.9026446 1.9837092,6.6695264 1.9611609,6.439359 1.9160646,6.2087847 1.8710682,5.9789226 1.8034237,5.7516043 1.7358792,5.5299843 1.6683347,5.308466 1.5781419,5.0896951 1.4879489,4.873875 1.3977561,4.6610059 1.3075632,4.4537331 1.1949223,4.252362 1.0597333,4.0508893 0.92484486,3.8552165 0.78965576,3.6649367 3.8987044,0.50100025 4.1239861,0.69209411 4.349268,0.87860905 4.5970979,1.0558644 4.844928,1.2262005 5.0927579,1.3919576 5.3180397,1.5484551 5.5886183,1.6957948 5.8363481,1.8382503 6.1039203,1.9717514 6.3714925,2.098435 l 0.2705787,0.116203 0.2705785,0.1093855 0.2787962,0.1035854 0.2759902,0.094936 0.2816023,0.083438 0.2816022,0.07774 0.2873145,0.069091 0.2844081,0.06034 0.2900202,0.048944 0.2906216,0.046094 0.2900201,0.031646 0.2929265,0.028796 0.2928254,0.017196 0.292927,0.0058 h 0.292125 l 0.292927,-0.0058 0.292824,-0.017196 0.292927,-0.028796 0.290021,-0.031646 0.292925,-0.046094 0.287216,-0.048944 0.287314,-0.06034 0.284408,-0.069091 0.284408,-0.07774 0.281602,-0.083438 0.278796,-0.094936 0.27599,-0.1035854 0.273185,-0.1093855 0.270579,-0.116203 0.264665,-0.1266836 0.261961,-0.1335011 0.259054,-0.1424555 0.253443,-0.1473397 0.250534,-0.1564975 0.242218,-0.1657571 0.245025,-0.1703361 0.2337,-0.17725535 0.230492,-0.18651494 0.225282,-0.19109386 z" fill="#d10f0e" stroke="#fff" stroke-miterlimit="10" stroke-width="1.031" style="fill:#bf2033;stroke:#fff;stroke-width:1;stroke-linejoin:round;stroke-miterlimit:10;stroke-dasharray:none;stroke-opacity:1"/>
</svg>

<svg width="20.99" height="20.002" xmlns="http://www.w3.org/2000/svg">
 <path d="m20.193 3.665-.135.19-.124.195-.121.202-.113.201-.104.208-.096.212-.09.216-.082.22-.073.22-.065.222-.056.228-.05.23-.04.23-.034.23-.022.233-.017.236-.006.233v.234l.011.233.02.233.026.233.033.23.046.23.047.23.065.225.068.225.076.218.081.219.09.213.102.21.107.207.113.202a4.574 4.644 0 0 1 .062 4.638 4.508 4.577 0 0 1-3.943 2.343l-.307.003-.29.014-.293.023-.291.032-.287.043-.287.052-.285.06-.282.07-.281.077-.282.09-.273.091-.276.107-.267.115-.265.124-.262.129-.256.138-.257.147-.247.158-.245.164-.24.17-.236-.17-.245-.164-.247-.158-.254-.146-.259-.138-.26-.13-.267-.124-.27-.115-.273-.106-.274-.092-.278-.09-.282-.077-.284-.07-.285-.06-.287-.052-.29-.043-.287-.032-.285-.023-.315-.014h-.293a4.535 4.604 0 0 1-3.875-6.984l.113-.202.112-.207.068-.21.113-.213.09-.219.067-.218.068-.225.068-.224.045-.23.045-.23.045-.23.022-.234.023-.233v-.7l-.023-.235-.022-.233-.023-.23-.045-.231-.045-.23-.068-.227-.067-.222-.068-.222-.09-.218-.09-.216-.09-.213-.09-.207-.113-.202-.135-.201-.135-.196-.135-.19L3.899.5l.225.191.225.187.248.177.248.17.248.166.225.156.27.148.248.142.268.134.267.126.271.117.27.109.28.104.275.095.282.083.282.078.287.069.284.06.29.05.291.045.29.032.293.029.293.017.293.006h.292l.293-.006.293-.017.293-.03.29-.03.292-.047.288-.049.287-.06.284-.07.285-.077.281-.083.28-.095.275-.104.273-.11.271-.116.265-.126.262-.134.259-.142.253-.148.25-.156.243-.166.245-.17.234-.177.23-.187.225-.191z" fill="#d10f0e" stroke="#fff" stroke-miterlimit="10" stroke-width="1.031" style="fill:#bf2033;stroke:#fff;stroke-width:1;stroke-linejoin:round;stroke-miterlimit:10;stroke-dasharray:none;stroke-opacity:1"/>
</svg>
